X:2942
T:Jacky Tar
O:england
C:Trad
M:4/4
L:1/8
K:G
|:Bd|e3f g2fe|d2B2B2dB|AB de fa ef|
d2A2A2Bd|e2ef g2fe|dB GB d2cB|AG FE DE FA|
G2E2E2:|
|:GA|BG EG BG EG|BA GF E2FG|AF DF AF DF|
AG FE D2EF|GF GB g2fe|dB GB d2cB|AG FE DE FA|
G2E2E2:|


